svg/file/attachment_2_line.svg

<?xml version="1.0" encoding="UTF-8"?>
<svg width="24px" height="24px" viewBox="0 0 24 24" version="1.1" xmlns="http://www.w3.org/2000/svg" xmlns:xlink="http://www.w3.org/1999/xlink">
    <title>attachment_2_line</title>
    <g id="页面-1" stroke="none" stroke-width="1" fill="none" fill-rule="evenodd">
        <g id="File" fill-rule="nonzero">
            <g id="attachment_2_line">
                 <path d="M24,0 L24,24 L0,24 L0,0 L24,0 Z M12.5934901,23.257841 L12.5819402,23.2595131 L12.5108777,23.2950439 L12.4918791,23.2987469 L12.4918791,23.2987469 L12.4767152,23.2950439 L12.4056548,23.2595131 C12.3958229,23.2563662 12.3870493,23.2590235 12.3821421,23.2649074 L12.3780323,23.275831 L12.360941,23.7031097 L12.3658947,23.7234994 L12.3769048,23.7357139 L12.4804777,23.8096931 L12.4953491,23.8136134 L12.4953491,23.8136134 L12.5071152,23.8096931 L12.6106902,23.7357139 L12.6232938,23.7196733 L12.6232938,23.7196733 L12.6266527,23.7031097 L12.609561,23.275831 C12.6075724,23.2657013 12.6010112,23.2592993 12.5934901,23.257841 L12.5934901,23.257841 Z M12.8583906,23.1452862 L12.8445485,23.1473072 L12.6598443,23.2396597 L12.6498822,23.2499052 L12.6498822,23.2499052 L12.6471943,23.2611114 L12.6650943,23.6906389 L12.6699349,23.7034178 L12.6699349,23.7034178 L12.678386,23.7104931 L12.8793402,23.8032389 C12.8914285,23.8068999 12.9022333,23.8029875 12.9078286,23.7952264 L12.9118235,23.7811639 L12.8776777,23.1665331 C12.8752882,23.1545897 12.8674102,23.1470016 12.8583906,23.1452862 L12.8583906,23.1452862 Z M12.1430473,23.1473072 C12.1332178,23.1423925 12.1221763,23.1452606 12.1156365,23.1525954 L12.1099173,23.1665331 L12.0757714,23.7811639 C12.0751323,23.7926639 12.0828099,23.8018602 12.0926481,23.8045676 L12.108256,23.8032389 L12.3092106,23.7104931 L12.3186497,23.7024347 L12.3186497,23.7024347 L12.3225043,23.6906389 L12.340401,23.2611114 L12.337245,23.2485176 L12.337245,23.2485176 L12.3277531,23.2396597 L12.1430473,23.1473072 Z" id="MingCute" fill-rule="nonzero"></path>
                <path d="M5.63597,10.5857 C4.26913,9.21888 4.26913,7.0028 5.63597,5.63597 C7.0028,4.26913 9.21888,4.26913 10.5857,5.63597 L18.3639,13.4141 C19.7307,14.781 19.7307,16.9971 18.3639,18.3639 C16.9971,19.7307 14.781,19.7307 13.4141,18.3639 L9.34828,14.298 C8.86012,13.8099 8.86012,13.0184 9.34828,12.5303 C9.83643,12.0421 10.6279,12.0421 11.116,12.5303 L14.8284,16.2426 C15.2189,16.6331 15.852,16.6331 16.2426,16.2426 C16.6331,15.852 16.6331,15.2189 16.2426,14.8284 L12.5303,11.116 C11.2611,9.84684 9.20327,9.84684 7.93406,11.116 C6.66486,12.3852 6.66486,14.443 7.93406,15.7122 L11.9999,19.7781 C14.1478,21.926 17.6302,21.926 19.7781,19.7781 C21.926,17.6302 21.926,14.1478 19.7781,11.9999 L11.9999,4.22175 C9.85204,2.07387 6.36964,2.07387 4.22175,4.22175 C2.07387,6.36964 2.07387,9.85204 4.22175,11.9999 L4.57527,12.3534 C4.96579,12.744 5.59899,12.744 5.98952,12.3535 C6.38004,11.963 6.38004,11.3298 5.98952,10.9393 L5.63597,10.5857 Z" id="路径" fill="#09244B"></path>
            </g>
        </g>
    </g>
</svg>

<svg xmlns="http://www.w3.org/2000/svg" width="24" height="24"><g fill="none" fill-rule="nonzero"><path d="M24 0v24H0V0h24ZM12.593 23.258l-.011.002-.071.035-.02.004-.014-.004-.071-.035c-.01-.004-.019-.001-.024.005l-.004.01-.017.428.005.02.01.013.104.074.015.004.012-.004.104-.074.012-.016.004-.017-.017-.427c-.002-.01-.009-.017-.017-.018Zm.265-.113-.013.002-.185.093-.01.01-.003.011.018.43.005.012.008.007.201.093c.012.004.023 0 .029-.008l.004-.014-.034-.614c-.003-.012-.01-.02-.02-.022Zm-.715.002a.023.023 0 0 0-.027.006l-.006.014-.034.614c0 .012.007.02.017.024l.015-.002.201-.093.01-.008.004-.011.017-.43-.003-.012-.01-.01-.184-.092Z"/><path fill="#09244B" d="M5.636 10.586a3.5 3.5 0 1 1 4.95-4.95l7.778 7.778a3.5 3.5 0 0 1-4.95 4.95l-4.066-4.066a1.25 1.25 0 1 1 1.768-1.768l3.712 3.713a1 1 0 0 0 1.415-1.415l-3.713-3.712a3.25 3.25 0 0 0-4.596 4.596L12 19.778A5.5 5.5 0 1 0 19.778 12L12 4.222A5.5 5.5 0 1 0 4.222 12l.353.353A1 1 0 1 0 5.99 10.94l-.354-.353Z"/></g></svg>
